; HEADER_BLOCK_START
; QIDIStudio 02.00.03.54
; total layer number: 1250
; total filament length [mm] : 31870.85
; total filament volume [cm^3] : 76658.37
; total filament weight [g] : 95.06
; filament_density: 1.24
; filament_diameter: 1.75
; max_z_height: 250.00
; HEADER_BLOCK_END

; EXECUTABLE_BLOCK_START
EXCLUDE_OBJECT_DEFINE NAME=组合体_id_0_copy_0 CENTER=135,135 POLYGON=[[5,5],[265,5],[265,265],[5,265],[5,5]]
M73 P0 R134
; FEATURE: Custom

PRINT_START BED=60 HOTEND=210 CHAMBER=0 EXTRUDER=0
SET_PRINT_STATS_INFO TOTAL_LAYER=1250
M83
M140 S60
M104 S210
M141 S0
G4 P3000
T0
G1 X108.000 Y1 F30000
G0 Z0.2 F600
;G1 E3 F1800
G90
M83
G0 X128 E8  F904.991
G0 X133 E.3742  F1508.32
G0 X138 E.3742  F6033.27
G0 X143 E.3742  F1508.32
G0 X148 E.3742  F6033.27
G0 X153 E.3742  F1508.32
G91
G1 X1 Z-0.300
G1 X4
G1 Z1 F1200
G90
M400
G1 X108.000 Y2.5 F30000
G0 Z0.2 F600
M83
G0 X128 E10  F904.991
G0 X133 E.3742  F1508.32
G0 X138 E.3742  F6033.27
G0 X143 E.3742  F1508.32
G0 X148 E.3742  F6033.27
G0 X153 E.3742  F1508.32
G91
G1 X1 Z-0.300
G1 X4
G1 Z1 F1200
G90
M400
G1 Z1 F600
; MACHINE_START_GCODE_END
M106 S0
M106 P2 S0
; Filament start gcode
;VT0
M106 P3 S255
G90
G21
M83 ; use relative distances for extrusion
; CHANGE_LAYER
; Z_HEIGHT: 0.2
; LAYER_HEIGHT: 0.2
G1 E-.8 F1800
 ; timelapse without wipe tower
TIMELAPSE_TAKE_FRAME

G92 E0
SET_PRINT_STATS_INFO CURRENT_LAYER=1
M106 S0
M106 P2 S0
M204 S6000
G1 Z.4 F30000
; OBJECT_ID: 547
EXCLUDE_OBJECT_START NAME=组合体_id_0_copy_0
G1 X12.4 Y16.9
G1 Z.2
G1 E.8 F1800
; FEATURE: Outer wall
; LINE_WIDTH: 0.5
G1 F3000
M204 S500
G1 X12.4 Y5.4 E.42833
G1 X264.6 Y5.4 E9.39349
G1 X264.6 Y264.6 E9.65422
G1 X5.4 Y264.6 E9.65422
G1 X5.4 Y16.9 E9.22588
G1 X12.34 Y16.9 E.25849
G1 E-.8 F1800
M204 S6000
G1 X19.965 Y16.556 Z.6 F30000
G1 X263.492 Y5.583 Z.6
G1 Z.2
G1 E.8 F1800
; FEATURE: Bottom surface
; LINE_WIDTH: 0.50055
G1 F6300
M204 S500
G1 X264.211 Y6.302 E.03794
G1 X264.211 Y6.949 E.02413
G1 X263.051 Y5.788 E.06123
G1 X262.403 Y5.788 E.02413
G1 X264.211 Y7.597 E.09536
M73 P0 R133
G1 X264.211 Y8.244 E.02413
G1 X261.756 Y5.788 E.12949
G1 X261.109 Y5.788 E.02413
G1 X264.211 Y8.891 E.16362
G1 X264.211 Y9.538 E.02413
G1 X260.462 Y5.788 E.19775
G1 X259.815 Y5.788 E.02413
G1 X264.211 Y10.185 E.23188
G1 X264.211 Y10.833 E.02413
G1 X259.167 Y5.788 E.26601
G1 X258.52 Y5.788 E.02413
G1 X264.211 Y11.48 E.30014
G1 X264.211 Y12.127 E.02413
G1 X257.873 Y5.788 E.33427
G1 X257.226 Y5.788 E.02413
G1 X264.211 Y12.774 E.3684
G1 X264.211 Y13.421 E.02413
G1 X256.579 Y5.788 E.40254
G1 X255.931 Y5.788 E.02413
G1 X264.211 Y14.069 E.43667
G1 X264.211 Y14.716 E.02413
G1 X255.284 Y5.788 E.4708
G1 X254.637 Y5.788 E.02413
G1 X264.211 Y15.363 E.50493
G1 X264.211 Y16.01 E.02413
G1 X253.99 Y5.788 E.53906
G1 X253.343 Y5.788 E.02413
G1 X264.211 Y16.657 E.57319
G1 X264.211 Y17.304 E.02413
G1 X252.696 Y5.788 E.60732
G1 X252.048 Y5.788 E.02413
G1 X264.211 Y17.952 E.64145
G1 X264.211 Y18.599 E.02413
G1 X251.401 Y5.788 E.67558
G1 X250.754 Y5.788 E.02413
G1 X264.211 Y19.246 E.70972
G1 X264.211 Y19.893 E.02413
G1 X250.107 Y5.788 E.74385
G1 X249.46 Y5.788 E.02413
G1 X264.211 Y20.54 E.77798
G1 X264.211 Y21.188 E.02413
G1 X248.812 Y5.788 E.81211
G1 X248.165 Y5.788 E.02413
G1 X264.211 Y21.835 E.84624
G1 X264.211 Y22.482 E.02413
G1 X247.518 Y5.788 E.88037
G1 X246.871 Y5.788 E.02413
G1 X264.211 Y23.129 E.9145
G1 X264.211 Y23.776 E.02413
G1 X246.224 Y5.788 E.94863
G1 X245.577 Y5.788 E.02413
G1 X264.211 Y24.423 E.98276
G1 X264.211 Y25.071 E.02413
G1 X244.929 Y5.788 E1.01689
G1 X244.282 Y5.788 E.02413
G1 X264.211 Y25.718 E1.05102
G1 X264.211 Y26.365 E.02413
G1 X243.635 Y5.788 E1.08516
G1 X242.988 Y5.788 E.02413
G1 X264.211 Y27.012 E1.11929
G1 X264.211 Y27.659 E.02413
G1 X242.341 Y5.788 E1.15342
G1 X241.693 Y5.788 E.02413
G1 X264.211 Y28.307 E1.18755
G1 X264.211 Y28.954 E.02413
G1 X241.046 Y5.788 E1.22168
G1 X240.399 Y5.788 E.02413
G1 X264.211 Y29.601 E1.25581
G1 X264.211 Y30.248 E.02413
G1 X239.752 Y5.788 E1.28994
G1 X239.105 Y5.788 E.02413
G1 X264.211 Y30.895 E1.32407
G1 X264.211 Y31.543 E.02413
G1 X238.457 Y5.788 E1.3582
G1 X237.81 Y5.788 E.02413
G1 X264.211 Y32.19 E1.39234
G1 X264.211 Y32.837 E.02413
G1 X237.163 Y5.788 E1.42647
G1 X236.516 Y5.788 E.02413
G1 X264.211 Y33.484 E1.4606
G1 X264.211 Y34.131 E.02413
G1 X235.869 Y5.788 E1.49473
G1 X235.222 Y5.788 E.02413
G1 X264.211 Y34.778 E1.52886
G1 X264.211 Y35.426 E.02413
G1 X234.574 Y5.788 E1.56299
G1 X233.927 Y5.788 E.02413
G1 X264.211 Y36.073 E1.59712
G1 X264.211 Y36.72 E.02413
G1 X233.28 Y5.788 E1.63125
G1 X232.633 Y5.788 E.02413
G1 X264.211 Y37.367 E1.66538
G1 X264.211 Y38.014 E.02413
G1 X231.986 Y5.788 E1.69951
G1 X231.338 Y5.788 E.02413
G1 X264.211 Y38.662 E1.73365
G1 X264.211 Y39.309 E.02413
G1 X230.691 Y5.788 E1.76778
G1 X230.044 Y5.788 E.02413
G1 X264.211 Y39.956 E1.80191
G1 X264.211 Y40.603 E.02413
G1 X229.397 Y5.788 E1.83604
G1 X228.75 Y5.788 E.02413
G1 X264.211 Y41.25 E1.87017
G1 X264.211 Y41.898 E.02413
G1 X228.102 Y5.788 E1.9043
G1 X227.455 Y5.788 E.02413
G1 X264.211 Y42.545 E1.93843
G1 X264.211 Y43.192 E.02413
G1 X226.808 Y5.788 E1.97256
G1 X226.161 Y5.788 E.02413
G1 X264.211 Y43.839 E2.00669
G1 X264.211 Y44.486 E.02413
G1 X225.514 Y5.788 E2.04082
G1 X224.867 Y5.788 E.02413
G1 X264.211 Y45.133 E2.07496
G1 X264.211 Y45.781 E.02413
G1 X224.219 Y5.788 E2.10909
G1 X223.572 Y5.788 E.02413
G1 X264.211 Y46.428 E2.14322
G1 X264.211 Y47.075 E.02413
G1 X222.925 Y5.788 E2.17735
G1 X222.278 Y5.788 E.02413
G1 X264.211 Y47.722 E2.21148
G1 X264.211 Y48.369 E.02413
G1 X221.631 Y5.788 E2.24561
G1 X220.983 Y5.788 E.02413
G1 X264.211 Y49.017 E2.27974
G1 X264.211 Y49.664 E.02413
G1 X220.336 Y5.788 E2.31387
G1 X219.689 Y5.788 E.02413
G1 X264.211 Y50.311 E2.348
G1 X264.211 Y50.958 E.02413
G1 X219.042 Y5.788 E2.38213
G1 X218.395 Y5.788 E.02413
G1 X264.211 Y51.605 E2.41627
G1 X264.211 Y52.253 E.02413
G1 X217.747 Y5.788 E2.4504
G1 X217.1 Y5.788 E.02413
G1 X264.211 Y52.9 E2.48453
G1 X264.211 Y53.547 E.02413
G1 X216.453 Y5.788 E2.51866
G1 X215.806 Y5.788 E.02413
G1 X264.211 Y54.194 E2.55279
G1 X264.211 Y54.841 E.02413
G1 X215.159 Y5.788 E2.58692
G1 X214.512 Y5.788 E.02413
G1 X264.211 Y55.488 E2.62105
G1 X264.211 Y56.136 E.02413
G1 X213.864 Y5.788 E2.65518
G1 X213.217 Y5.788 E.02413
G1 X264.211 Y56.783 E2.68931
G1 X264.211 Y57.43 E.02413
G1 X212.57 Y5.788 E2.72344
G1 X211.923 Y5.788 E.02413
G1 X264.211 Y58.077 E2.75758
G1 X264.211 Y58.724 E.02413
G1 X211.276 Y5.788 E2.79171
G1 X210.628 Y5.788 E.02413
G1 X264.211 Y59.372 E2.82584
G1 X264.211 Y60.019 E.02413
G1 X209.981 Y5.788 E2.85997
G1 X209.334 Y5.788 E.02413
G1 X264.211 Y60.666 E2.8941
G1 X264.211 Y61.313 E.02413
G1 X208.687 Y5.788 E2.92823
G1 X208.04 Y5.788 E.02413
G1 X264.211 Y61.96 E2.96236
G1 X264.211 Y62.607 E.02413
G1 X207.392 Y5.788 E2.99649
G1 X206.745 Y5.788 E.02413
G1 X264.211 Y63.255 E3.03062
M73 P0 R132
G1 X264.211 Y63.902 E.02413
G1 X206.098 Y5.788 E3.06475
G1 X205.451 Y5.788 E.02413
G1 X264.211 Y64.549 E3.09889
G1 X264.211 Y65.196 E.02413
G1 X204.804 Y5.788 E3.13302
G1 X204.157 Y5.788 E.02413
G1 X264.211 Y65.843 E3.16715
G1 X264.211 Y66.491 E.02413
G1 X203.509 Y5.788 E3.20128
M73 P1 R132
G1 X202.862 Y5.788 E.02413
G1 X264.211 Y67.138 E3.23541
G1 X264.211 Y67.785 E.02413
G1 X202.215 Y5.788 E3.26954
G1 X201.568 Y5.788 E.02413
G1 X264.211 Y68.432 E3.30367
G1 X264.211 Y69.079 E.02413
G1 X200.921 Y5.788 E3.3378
G1 X200.273 Y5.788 E.02413
G1 X264.211 Y69.727 E3.37193
G1 X264.211 Y70.374 E.02413
G1 X199.626 Y5.788 E3.40606
G1 X198.979 Y5.788 E.02413
G1 X264.211 Y71.021 E3.4402
G1 X264.211 Y71.668 E.02413
G1 X198.332 Y5.788 E3.47433
G1 X197.685 Y5.788 E.02413
G1 X264.211 Y72.315 E3.50846
G1 X264.211 Y72.962 E.02413
G1 X197.038 Y5.788 E3.54259
G1 X196.39 Y5.788 E.02413
G1 X264.211 Y73.61 E3.57672
G1 X264.211 Y74.257 E.02413
G1 X195.743 Y5.788 E3.61085
G1 X195.096 Y5.788 E.02413
G1 X264.211 Y74.904 E3.64498
G1 X264.211 Y75.551 E.02413
G1 X194.449 Y5.788 E3.67911
G1 X193.802 Y5.788 E.02413
G1 X264.211 Y76.198 E3.71324
G1 X264.211 Y76.846 E.02413
G1 X193.154 Y5.788 E3.74737
G1 X192.507 Y5.788 E.02413
G1 X264.211 Y77.493 E3.78151
G1 X264.211 Y78.14 E.02413
G1 X191.86 Y5.788 E3.81564
G1 X191.213 Y5.788 E.02413
G1 X264.211 Y78.787 E3.84977
G1 X264.211 Y79.434 E.02413
G1 X190.566 Y5.788 E3.8839
G1 X189.918 Y5.788 E.02413
G1 X264.211 Y80.082 E3.91803
G1 X264.211 Y80.729 E.02413
G1 X189.271 Y5.788 E3.95216
G1 X188.624 Y5.788 E.02413
G1 X264.211 Y81.376 E3.98629
G1 X264.211 Y82.023 E.02413
G1 X187.977 Y5.788 E4.02042
G1 X187.33 Y5.788 E.02413
G1 X264.211 Y82.67 E4.05455
G1 X264.211 Y83.317 E.02413
G1 X186.683 Y5.788 E4.08868
G1 X186.035 Y5.788 E.02413
G1 X264.211 Y83.965 E4.12282
G1 X264.211 Y84.612 E.02413
G1 X185.388 Y5.788 E4.15695
G1 X184.741 Y5.788 E.02413
G1 X264.211 Y85.259 E4.19108
G1 X264.211 Y85.906 E.02413
G1 X184.094 Y5.788 E4.22521
G1 X183.447 Y5.788 E.02413
G1 X264.211 Y86.553 E4.25934
G1 X264.211 Y87.201 E.02413
G1 X182.799 Y5.788 E4.29347
G1 X182.152 Y5.788 E.02413
G1 X264.211 Y87.848 E4.3276
G1 X264.211 Y88.495 E.02413
G1 X181.505 Y5.788 E4.36173
G1 X180.858 Y5.788 E.02413
G1 X264.211 Y89.142 E4.39586
G1 X264.211 Y89.789 E.02413
G1 X180.211 Y5.788 E4.42999
G1 X179.563 Y5.788 E.02413
G1 X264.211 Y90.437 E4.46413
G1 X264.211 Y91.084 E.02413
G1 X178.916 Y5.788 E4.49826
G1 X178.269 Y5.788 E.02413
G1 X264.211 Y91.731 E4.53239
G1 X264.211 Y92.378 E.02413
G1 X177.622 Y5.788 E4.56652
G1 X176.975 Y5.788 E.02413
G1 X264.211 Y93.025 E4.60065
G1 X264.211 Y93.672 E.02413
G1 X176.328 Y5.788 E4.63478
G1 X175.68 Y5.788 E.02413
G1 X264.211 Y94.32 E4.66891
G1 X264.211 Y94.967 E.02413
G1 X175.033 Y5.788 E4.70304
G1 X174.386 Y5.788 E.02413
G1 X264.211 Y95.614 E4.73717
G1 X264.211 Y96.261 E.02413
G1 X173.739 Y5.788 E4.7713
G1 X173.092 Y5.788 E.02413
G1 X264.211 Y96.908 E4.80544
M73 P1 R131
G1 X264.211 Y97.556 E.02413
G1 X172.444 Y5.788 E4.83957
G1 X171.797 Y5.788 E.02413
G1 X264.211 Y98.203 E4.8737
G1 X264.211 Y98.85 E.02413
G1 X171.15 Y5.788 E4.90783
G1 X170.503 Y5.788 E.02413
G1 X264.211 Y99.497 E4.94196
G1 X264.211 Y100.144 E.02413
G1 X169.856 Y5.788 E4.97609
G1 X169.208 Y5.788 E.02413
G1 X264.211 Y100.791 E5.01022
G1 X264.211 Y101.439 E.02413
G1 X168.561 Y5.788 E5.04435
G1 X167.914 Y5.788 E.02413
G1 X264.211 Y102.086 E5.07848
G1 X264.211 Y102.733 E.02413
G1 X167.267 Y5.788 E5.11261
G1 X166.62 Y5.788 E.02413
G1 X264.211 Y103.38 E5.14675
G1 X264.211 Y104.027 E.02413
G1 X165.973 Y5.788 E5.18088
G1 X165.325 Y5.788 E.02413
G1 X264.211 Y104.675 E5.21501
G1 X264.211 Y105.322 E.02413
G1 X164.678 Y5.788 E5.24914
G1 X164.031 Y5.788 E.02413
G1 X264.211 Y105.969 E5.28327
G1 X264.211 Y106.616 E.02413
G1 X163.384 Y5.788 E5.3174
G1 X162.737 Y5.788 E.02413
G1 X264.211 Y107.263 E5.35153
G1 X264.211 Y107.911 E.02413
G1 X162.089 Y5.788 E5.38566
M73 P2 R131
G1 X161.442 Y5.788 E.02413
G1 X264.211 Y108.558 E5.41979
G1 X264.211 Y109.205 E.02413
G1 X160.795 Y5.788 E5.45393
G1 X160.148 Y5.788 E.02413
G1 X264.211 Y109.852 E5.48806
G1 X264.211 Y110.499 E.02413
G1 X159.501 Y5.788 E5.52219
G1 X158.854 Y5.788 E.02413
G1 X264.211 Y111.146 E5.55632
G1 X264.211 Y111.794 E.02413
G1 X158.206 Y5.788 E5.59045
G1 X157.559 Y5.788 E.02413
G1 X264.211 Y112.441 E5.62458
G1 X264.211 Y113.088 E.02413
G1 X156.912 Y5.788 E5.65871
G1 X156.265 Y5.788 E.02413
G1 X264.211 Y113.735 E5.69284
G1 X264.211 Y114.382 E.02413
G1 X155.618 Y5.788 E5.72697
G1 X154.97 Y5.788 E.02413
G1 X264.211 Y115.03 E5.7611
G1 X264.211 Y115.677 E.02413
G1 X154.323 Y5.788 E5.79523
G1 X153.676 Y5.788 E.02413
G1 X264.211 Y116.324 E5.82937
G1 X264.211 Y116.971 E.02413
G1 X153.029 Y5.788 E5.8635
G1 X152.382 Y5.788 E.02413
G1 X264.211 Y117.618 E5.89763
G1 X264.211 Y118.266 E.02413
G1 X151.734 Y5.788 E5.93176
G1 X151.087 Y5.788 E.02413
G1 X264.211 Y118.913 E5.96589
G1 X264.211 Y119.56 E.02413
G1 X150.44 Y5.788 E6.00002
G1 X149.793 Y5.788 E.02413
G1 X264.211 Y120.207 E6.03415
G1 X264.211 Y120.854 E.02413
G1 X149.146 Y5.788 E6.06828
G1 X148.499 Y5.788 E.02413
G1 X264.211 Y121.501 E6.10241
G1 X264.211 Y122.149 E.02413
G1 X147.851 Y5.788 E6.13655
M73 P2 R130
G1 X147.204 Y5.788 E.02413
G1 X264.211 Y122.796 E6.17068
G1 X264.211 Y123.443 E.02413
G1 X146.557 Y5.788 E6.20481
G1 X145.91 Y5.788 E.02413
G1 X264.211 Y124.09 E6.23894
G1 X264.211 Y124.737 E.02413
G1 X145.263 Y5.788 E6.27307
G1 X144.615 Y5.788 E.02413
G1 X264.211 Y125.385 E6.3072
G1 X264.211 Y126.032 E.02413
G1 X143.968 Y5.788 E6.34133
G1 X143.321 Y5.788 E.02413
G1 X264.211 Y126.679 E6.37546
G1 X264.211 Y127.326 E.02413
G1 X142.674 Y5.788 E6.40959
G1 X142.027 Y5.788 E.02413
G1 X264.211 Y127.973 E6.44372
G1 X264.211 Y128.621 E.02413
G1 X141.379 Y5.788 E6.47786
G1 X140.732 Y5.788 E.02413
G1 X264.211 Y129.268 E6.51199
G1 X264.211 Y129.915 E.02413
G1 X140.085 Y5.788 E6.54612
G1 X139.438 Y5.788 E.02413
G1 X264.211 Y130.562 E6.58025
G1 X264.211 Y131.209 E.02413
G1 X138.791 Y5.788 E6.61438
G1 X138.144 Y5.788 E.02413
G1 X264.211 Y131.856 E6.64851
G1 X264.211 Y132.504 E.02413
G1 X137.496 Y5.788 E6.68264
G1 X136.849 Y5.788 E.02413
G1 X264.211 Y133.151 E6.71677
G1 X264.211 Y133.798 E.02413
G1 X136.202 Y5.788 E6.7509
G1 X135.555 Y5.788 E.02413
G1 X264.211 Y134.445 E6.78503
G1 X264.211 Y135.092 E.02413
G1 X134.908 Y5.788 E6.81917
G1 X134.26 Y5.788 E.02413
G1 X264.211 Y135.74 E6.8533
G1 X264.211 Y136.387 E.02413
G1 X133.613 Y5.788 E6.88743
G1 X132.966 Y5.788 E.02413
G1 X264.211 Y137.034 E6.92156
G1 X264.211 Y137.681 E.02413
G1 X132.319 Y5.788 E6.95569
G1 X131.672 Y5.788 E.02413
G1 X264.211 Y138.328 E6.98982
M73 P3 R130
G1 X264.211 Y138.976 E.02413
G1 X131.024 Y5.788 E7.02395
G1 X130.377 Y5.788 E.02413
G1 X264.211 Y139.623 E7.05808
G1 X264.211 Y140.27 E.02413
G1 X129.73 Y5.788 E7.09221
G1 X129.083 Y5.788 E.02413
G1 X264.211 Y140.917 E7.12634
G1 X264.211 Y141.564 E.02413
G1 X128.436 Y5.788 E7.16048
G1 X127.789 Y5.788 E.02413
G1 X264.211 Y142.211 E7.19461
G1 X264.211 Y142.859 E.02413
G1 X127.141 Y5.788 E7.22874
M73 P3 R129
G1 X126.494 Y5.788 E.02413
G1 X264.211 Y143.506 E7.26287
G1 X264.211 Y144.153 E.02413
G1 X125.847 Y5.788 E7.297
G1 X125.2 Y5.788 E.02413
G1 X264.211 Y144.8 E7.33113
G1 X264.211 Y145.447 E.02413
G1 X124.553 Y5.788 E7.36526
G1 X123.905 Y5.788 E.02413
G1 X264.211 Y146.095 E7.39939
G1 X264.211 Y146.742 E.02413
G1 X123.258 Y5.788 E7.43352
G1 X122.611 Y5.788 E.02413
G1 X264.211 Y147.389 E7.46765
G1 X264.211 Y148.036 E.02413
G1 X121.964 Y5.788 E7.50179
G1 X121.317 Y5.788 E.02413
G1 X264.211 Y148.683 E7.53592
G1 X264.211 Y149.33 E.02413
G1 X120.67 Y5.788 E7.57005
G1 X120.022 Y5.788 E.02413
G1 X264.211 Y149.978 E7.60418
G1 X264.211 Y150.625 E.02413
G1 X119.375 Y5.788 E7.63831
G1 X118.728 Y5.788 E.02413
G1 X264.211 Y151.272 E7.67244
G1 X264.211 Y151.919 E.02413
G1 X118.081 Y5.788 E7.70657
G1 X117.434 Y5.788 E.02413
G1 X264.211 Y152.566 E7.7407
G1 X264.211 Y153.214 E.02413
G1 X116.786 Y5.788 E7.77483
G1 X116.139 Y5.788 E.02413
G1 X264.211 Y153.861 E7.80896
G1 X264.211 Y154.508 E.02413
G1 X115.492 Y5.788 E7.8431
G1 X114.845 Y5.788 E.02413
G1 X264.211 Y155.155 E7.87723
G1 X264.211 Y155.802 E.02413
G1 X114.198 Y5.788 E7.91136
G1 X113.55 Y5.788 E.02413
G1 X264.211 Y156.45 E7.94549
G1 X264.211 Y157.097 E.02413
G1 X112.903 Y5.788 E7.97962
G1 X112.256 Y5.788 E.02413
G1 X264.211 Y157.744 E8.01375
G1 X264.211 Y158.391 E.02413
G1 X111.609 Y5.788 E8.04788
G1 X110.962 Y5.788 E.02413
G1 X264.211 Y159.038 E8.08201
G1 X264.211 Y159.685 E.02413
G1 X110.315 Y5.788 E8.11614
G1 X109.667 Y5.788 E.02413
G1 X264.211 Y160.333 E8.15027
G1 X264.211 Y160.98 E.02413
G1 X109.02 Y5.788 E8.18441
G1 X108.373 Y5.788 E.02413
M73 P3 R128
G1 X264.211 Y161.627 E8.21854
G1 X264.211 Y162.274 E.02413
G1 X107.726 Y5.788 E8.25267
G1 X107.079 Y5.788 E.02413
G1 X264.211 Y162.921 E8.2868
M73 P4 R128
G1 X264.211 Y163.569 E.02413
G1 X106.431 Y5.788 E8.32093
G1 X105.784 Y5.788 E.02413
G1 X264.211 Y164.216 E8.35506
G1 X264.211 Y164.863 E.02413
G1 X105.137 Y5.788 E8.38919
G1 X104.49 Y5.788 E.02413
G1 X264.211 Y165.51 E8.42332
G1 X264.211 Y166.157 E.02413
G1 X103.843 Y5.788 E8.45745
G1 X103.195 Y5.788 E.02413
G1 X264.211 Y166.805 E8.49158
G1 X264.211 Y167.452 E.02413
G1 X102.548 Y5.788 E8.52572
G1 X101.901 Y5.788 E.02413
